X:1
T:Break Forth, O Joyful Heart
T:John Robson Sweney
T:Break Forth, O Joyful Heart
T:Public Domain
T:Public Domain
C:John Robson Sweney
Z:Public Domain
%%score ( 1 2 ) ( 3 4 )
L:1/8
M:4/4
K:Bb
V:1 treble 
V:2 treble 
V:3 bass 
V:4 bass 
V:1
 [DF]2 | [DF]3 [DB] [Fd]3 [FB] | (cB)([FA][EG]) [DF]3 [DF] | [CE]2 [FA]2 [EG]2 [EF]2 | %4
w: 1.~Break|forth, break forth, O|joy- * ful * heart, And|His good- ness known,|
w: 2.~’Twas|Je- sus sought my|wand’- * ring * soul, And|a shep- herd’s care|
w: 3.~He|is my ad- vo-|cate * with * God, My|ior and my friend,|
w: 4.~My|soul shall mag- ni-|fy * the * Lord, My|His love pro- claim,|
 [DB]6 [DF]2 | [Fd]3 [Fd] [^Fd]3 [FA] | [Ac]2 [GB]2 [EG]3 [EB] | [DF]2 [DB]2 ([Fd][Ec])([DB][CA]) | %8
w: Who all|thy life, though un-|de- served, Such love|to thee has * shown. *|
w: He brought|me kind- ly to|His fold, And still|pro- tects me * there. *|
w: His mer-|cies new with ev-|ery morn Like balm-|y showers de- * scend. *|
w: And ev-|ery power with- in|me join To bless|and praise His * name. *|
 [DB]6 ||"^Refrain" [DF]2 | (DEF)[DB] [Fc]3 [Fc] | ([Fd][Fe])([Fd][Ec]) [DB]2 [DF]2 | %12
w: ||||
w: ||||
w: Break|forth,|break * * forth, O joy-|heart, * Break * forth, no|
w: ||||
 [EG]2 [GB]2 [Ac][GB][FA][EG] | [DF]6 [DF]2 | (EDC)[EA] [DB]3 [FB] | %15
w: |||
w: |||
w: long- er si- lent be; Break|forth, break|forth * * in grate- ful|
w: |||
 ([Fc][FB])([Fc][Bd]) [Ae]2 [Fe]2 | [Fd]2 [FB]2 [Fd][Ec][DB][CA] | [DB]6 |] %18
w: |||
w: |||
w: To * Him * who came|to ran- som Thee. * *||
w: |||
V:2
 x2 | x8 | G2 x6 | x8 | x8 | x8 | x8 | x8 | x6 || x2 | B3 x5 | x8 | x8 | x8 | A3 x5 | x8 | x8 | %17
w: ||make|||||||||||||||
w: ||with|||||||||||||||
w: ||Sav-||||||||ful||||praise|||
w: ||voice|||||||||||||||
 x6 |] %18
w: |
w: |
w: |
w: |
V:3
 [B,,B,]2 | [B,,B,]3 [B,,F,] [B,,B,]3 [D,B,] | [E,B,]2 [E,B,]2 [B,,B,]3 [B,,B,] | %3
 [F,A,]2 [F,C]2 [F,B,]2 [F,A,]2 | [B,,B,]6 [B,,B,]2 | [B,,B,]3 [B,,B,] [D,A,]3 [D,C] | %6
 [E,B,]2 [E,E]2 [E,B,]3 [G,B,] | B,2 [B,,F,]2 F,2 [F,,F,]2 | [B,,F,]6 || [B,,B,]2 | %10
 (B,,C,D,)[B,,B,] [F,A,]3 [F,A,] | ([F,B,][F,C])([F,B,][F,A,]) [B,,B,]2 [B,,B,]2 | %12
 [E,B,]2 [E,E]2 [E,E][E,E][E,B,][E,B,] | [B,,B,]6 [B,,B,]2 | (CB,A,)[F,C] [B,,B,]3 [D,B,] | %15
 ([F,A,][F,G,])([F,A,][F,B,]) [F,C]2 [F,A,]2 | [B,,B,]2 [D,B,]2 F,F,[F,,F,][F,,F,] | [B,,F,]6 |] %18
V:4
 x2 | x8 | x8 | x8 | x8 | x8 | x8 | B,2 F,2 x4 | x6 || x2 | F,3 x5 | x8 | x8 | x8 | F,3 x5 | x8 | %16
 x4 F,F, x2 | x6 |] %18

